icons/soundcloud.svg

<?xml version="1.0" encoding="UTF-8" standalone="no"?>
<svg
   xmlns:dc="http://purl.org/dc/elements/1.1/"
   xmlns:cc="http://creativecommons.org/ns#"
   xmlns:rdf="http://www.w3.org/1999/02/22-rdf-syntax-ns#"
   xmlns:svg="http://www.w3.org/2000/svg"
   xmlns="http://www.w3.org/2000/svg"
   xmlns:sodipodi="http://sodipodi.sourceforge.net/DTD/sodipodi-0.dtd"
   xmlns:inkscape="http://www.inkscape.org/namespaces/inkscape"
   id="svg8"
   version="1.1"
   viewBox="0 0 79.374998 79.375002"
   height="300"
   width="300"
   sodipodi:docname="soundcloud.svg"
   inkscape:version="0.92.4 (5da689c313, 2019-01-14)">
  <sodipodi:namedview
     pagecolor="#ffffff"
     bordercolor="#666666"
     borderopacity="1"
     objecttolerance="10"
     gridtolerance="10"
     guidetolerance="10"
     inkscape:pageopacity="0"
     inkscape:pageshadow="2"
     inkscape:window-width="746"
     inkscape:window-height="820"
     id="namedview7"
     showgrid="false"
     borderlayer="true"
     inkscape:showpageshadow="false"
     inkscape:zoom="1.5733333"
     inkscape:cx="150"
     inkscape:cy="147.92616"
     inkscape:window-x="1099"
     inkscape:window-y="110"
     inkscape:window-maximized="0"
     inkscape:current-layer="svg8" />
  <defs
     id="defs2" />
  <metadata
     id="metadata5">
    <rdf:RDF>
      <cc:Work
         rdf:about="">
        <dc:format>image/svg+xml</dc:format>
        <dc:type
           rdf:resource="http://purl.org/dc/dcmitype/StillImage" />
        <dc:title></dc:title>
      </cc:Work>
    </rdf:RDF>
  </metadata>
  <g
     transform="matrix(0.87983308,0,0,0.87983308,4.4623711,-186.97853)"
     id="layer1">
    <path
       id="rect825"
       transform="matrix(0.26458333,0,0,0.26458333,0,217.62499)"
       d="m 183.50781,76.552734 c -8.67606,-0.114055 -18.16225,1.487754 -24.21289,4.328125 -1.16687,0.547805 -1.84076,1.173378 -2.20898,2.054688 -0.79491,1.902463 -0.78911,109.770873 0.006,111.673833 1.14673,2.7445 -3.17054,2.53489 52.07031,2.52929 47.66002,-0.004 49.89966,-0.0366 53.3457,-0.74609 2.44835,-0.50517 4.85885,-1.35995 7.54883,-2.67383 7.34058,-3.58534 12.42806,-8.67769 15.91992,-15.93359 2.75253,-5.71964 3.27389,-8.12672 3.2461,-15.01563 -0.0208,-5.12069 -0.13833,-6.13568 -1.05664,-9.13867 -5.77518,-18.88554 -25.34369,-29.20666 -43.77149,-23.08594 -1.02159,0.3394 -1.93582,0.53877 -2.0332,0.44141 -0.0974,-0.0975 -0.42941,-1.71371 -0.73633,-3.5918 -4.22189,-25.83466 -23.99734,-45.717795 -49.86914,-50.138671 -2.55467,-0.436535 -5.35603,-0.665106 -8.24805,-0.703125 z m -33.45117,7.972657 c -1.65138,-0.09738 -3.35376,0.844838 -3.85352,2.722656 -0.20462,0.768831 -0.68978,18.680943 -1.07812,39.804683 -0.70522,38.36043 -0.70436,38.4231 0.084,52.82813 0.67793,12.38755 0.8876,14.57266 1.48243,15.48047 1.34015,2.04533 3.9639,2.36616 5.64062,0.68945 0.60193,-0.60193 1.18885,-1.68209 1.30274,-2.40039 0.11387,-0.7183 0.56235,-7.43492 0.99804,-14.92383 l 0.79297,-13.61523 -0.82617,-38.61719 c -0.6684,-31.263495 -0.93034,-38.845028 -1.37305,-39.810546 -0.63216,-1.378725 -1.88551,-2.082466 -3.16992,-2.158203 z m -11.51562,6.634765 c -0.92312,-0.04224 -1.91382,0.298252 -2.79102,1.082032 l -1.23242,1.099609 -0.68164,35.291013 c -0.61562,31.83183 -0.62717,36.55087 -0.11914,48.15625 0.78891,18.02245 0.80501,18.18787 1.99023,19.37305 1.32798,1.32801 3.60888,1.35784 4.90235,0.0644 0.50449,-0.50449 1.01148,-1.49689 1.12695,-2.20703 0.11546,-0.71013 0.51681,-7.48655 0.89062,-15.05664 0.65037,-13.17044 0.65025,-15.26424 -0.002,-48.58398 -0.37485,-19.15144 -0.77621,-35.401196 -0.89062,-36.111332 -0.30694,-1.904929 -1.65483,-3.037029 -3.19336,-3.107422 z m -35.48633,8.09961 c -0.6556,0.07311 -1.30112,0.371939 -1.8086,0.912114 l -0.90429,0.96484 -0.884769,31.96875 -0.884765,31.9707 0.929687,15.11914 c 0.890507,14.4813 0.967167,15.15624 1.791017,16.03321 1.13229,1.20525 2.78661,1.19513 4.00781,-0.0254 0.51849,-0.51851 0.94141,-1.30603 0.94141,-1.74804 0,-0.44198 0.44575,-7.20861 0.99023,-15.03711 l 0.99024,-14.23242 -0.99805,-31.87891 c -0.57702,-18.40709 -1.16139,-32.18391 -1.38281,-32.59766 -0.57063,-1.066224 -1.69444,-1.571059 -2.78711,-1.449214 z m 11.99023,1.480464 c -1.02724,-0.0583 -2.09336,0.31822 -2.70312,1.15625 -0.64476,0.88615 -0.76169,3.35727 -1.51368,32.06641 l -0.81445,31.10742 0.84375,14.78907 c 0.84057,14.73233 1.08893,16.5052 2.38672,17.02734 1.29271,0.5201 2.8879,0.21745 3.76367,-0.71484 0.88863,-0.94591 0.94061,-1.36086 1.84766,-15.26563 l 0.93164,-14.29492 -0.86719,-31.68555 c -0.6834,-24.95822 -0.98145,-31.9088 -1.40234,-32.73633 -0.45701,-0.89858 -1.44542,-1.39094 -2.47266,-1.44922 z m -23.123045,0.83594 c -1.170402,0.008 -2.360412,0.80728 -2.666016,2.25391 -0.154733,0.73243 -0.673353,14.8106 -1.152343,31.28711 l -0.871094,29.95898 0.978516,14.97852 c 0.587576,8.98378 1.161939,15.31037 1.435546,15.80859 0.795111,1.44782 2.723117,1.7124 3.900391,0.53516 0.975511,-0.97554 0.978669,-0.99681 2.142578,-17.11328 l 0.998047,-13.82618 -1.033203,-30.7246 c -0.662706,-19.70514 -1.188371,-31.06769 -1.464844,-31.67774 -0.460431,-1.01599 -1.357265,-1.48682 -2.267578,-1.48047 z m 34.296875,1.06445 c -0.7447,0.0257 -1.4866,0.31864 -2.09375,0.92579 -1.16388,1.16386 -1.18634,1.58829 -1.96289,35.39257 -0.55249,24.05073 -0.55459,27.58372 -0.0117,38.21485 0.91931,17.9989 0.92109,18.01483 1.97266,19.0664 0.96756,0.96756 2.75104,1.19476 4.02734,0.51172 h 0.002 c 0.40375,-0.21619 0.94152,-0.77761 1.19532,-1.24804 0.2832,-0.52498 0.78943,-6.34439 1.3125,-15.06641 l 0.85351,-14.21094 -0.74805,-29.57226 c -0.41129,-16.26528 -0.83812,-30.1551 -0.94726,-30.86524 -0.30371,-1.97613 -1.96128,-3.20501 -3.59961,-3.14844 z m -45.861328,3.86524 c -0.314684,0 -1.014635,0.38797 -1.554688,0.86328 l -0.980468,0.86524 -1.015625,28.41992 -1.015625,28.42187 1.042968,15.15039 c 0.574016,8.33341 1.205683,15.4551 1.404297,15.82617 0.404213,0.75531 1.439525,1.44716 2.19336,1.46485 0.273637,0.008 0.922915,-0.41313 1.441406,-0.93164 0.518491,-0.51848 0.942728,-1.33935 0.943359,-1.82422 7.67e-4,-0.48488 0.510751,-7.31123 1.134766,-15.16992 l 1.134766,-14.28907 -1.13086,-27.57421 c -0.622465,-15.16619 -1.134534,-27.97216 -1.136719,-28.45704 -0.0045,-0.98997 -1.584744,-2.76562 -2.460937,-2.76562 z m -11.183594,10.81445 c -0.825282,0.004 -1.6471,0.34149 -1.916016,1.00977 -0.145625,0.3617 -0.761521,11.02889 -1.36914,23.70312 l -1.103516,23.04297 1.126953,15.31836 c 0.941163,12.77178 1.238288,15.43735 1.779297,16.03516 0.83353,0.92103 2.149234,0.91585 2.988282,-0.0117 0.546882,-0.60431 0.877687,-3.32718 1.943359,-16.03516 l 1.283203,-15.30664 -1.251953,-23.04492 c -0.689118,-12.67423 -1.382521,-23.34726 -1.541016,-23.71875 -0.283825,-0.66523 -1.11417,-0.99615 -1.939453,-0.99219 z m -22.146484,15.94922 c -0.369569,0.0245 -0.753797,0.17052 -1.085938,0.44531 -0.704621,0.583 -0.873522,1.92484 -1.99414,15.9668 l -1.222657,15.33203 1.222657,14.93555 c 0.673232,8.21423 1.405182,15.27088 1.625,15.68164 0.45826,0.85625 1.993294,0.99311 2.623046,0.23437 0.233613,-0.28157 1.06429,-7.32394 1.845704,-15.65039 l 1.419922,-15.13867 -1.384766,-15.16992 c -0.762021,-8.34387 -1.496689,-15.45779 -1.632813,-15.80664 -0.225637,-0.57829 -0.800067,-0.87086 -1.416015,-0.83008 z m -11.275391,0.91211 c -0.327167,0.034 -0.648766,0.19562 -0.896484,0.49414 -0.242945,0.29254 -0.999554,7.00671 -1.742188,15.45899 l -1.3125,14.9414 1.332031,14.58203 c 0.733259,8.02001 1.517216,14.80315 1.742188,15.07422 0.521257,0.62808 1.64367,0.63515 2.142578,0.0117 0.414094,-0.52964 3.277264,-26.97553 3.232422,-29.85937 -0.04997,-3.21438 -2.752483,-28.99053 -3.130859,-29.86133 -0.261001,-0.60066 -0.821909,-0.89848 -1.367188,-0.8418 z m 22,1.04297 c -0.741532,0.0345 -1.423912,0.47954 -1.613281,1.31641 -0.109606,0.48446 -0.703306,7.1025 -1.31836,14.70703 l -1.11914,13.82617 1.15625,14.97851 c 1.224041,15.87969 1.38142,16.70704 3.185547,16.70704 0.562658,0 1.158816,-0.34723 1.478515,-0.86329 0.363289,-0.58624 0.947666,-5.6662 1.81836,-15.79492 l 1.283203,-14.92968 -1.28125,-14.06641 c -0.704171,-7.73692 -1.436359,-14.36563 -1.626953,-14.73047 -0.422304,-0.80835 -1.221358,-1.18493 -1.962891,-1.15039 z m -32.738281,3.92773 c -0.265126,0 -0.658606,0.21463 -0.873047,0.47852 -0.214439,0.26419 -1.01578,6.09768 -1.78125,12.96289 l -1.392578,12.48242 1.398437,12.48242 c 0.768743,6.86525 1.570082,12.6969 1.78125,12.96094 0.21117,0.26419 0.602062,0.48047 0.867188,0.48047 0.265126,0 0.650953,-0.21658 0.859375,-0.48047 0.208418,-0.26419 1.091805,-6.09569 1.962891,-12.96094 l 1.583984,-12.48242 -1.56836,-12.48242 c -0.862824,-6.86521 -1.746211,-12.69885 -1.96289,-12.96289 -0.21668,-0.26419 -0.609874,-0.47852 -0.875,-0.47852 z m -10.001953,9.58204 c -0.510511,0.0294 -1.106308,0.36794 -1.320313,0.88281 -0.197522,0.47527 -0.78136,4.17773 -1.296875,8.22851 l -0.9375,7.36524 1.076172,7.95312 c 1.004108,7.42031 1.323965,8.58819 2.351563,8.61328 0.132559,0.003 0.41802,-0.21053 0.634765,-0.47461 0.216745,-0.26418 0.948261,-3.99996 1.625,-8.30273 l 1.228516,-7.82422 -1.228516,-7.91992 c -0.675683,-4.35655 -1.307467,-8.05306 -1.40625,-8.21289 -0.143795,-0.23267 -0.420256,-0.32623 -0.726562,-0.30859 z"
       style="opacity:1;fill:#ffffff;fill-opacity:1;fill-rule:evenodd;stroke:none;stroke-width:0;stroke-linecap:square;stroke-linejoin:miter;stroke-miterlimit:4;stroke-dasharray:none;stroke-opacity:1;paint-order:normal"
       inkscape:connector-curvature="0" />
  </g>
</svg>

<?xml version="1.0" encoding="UTF-8" standalone="no"?>
<svg
   xmlns:dc="http://purl.org/dc/elements/1.1/"
   xmlns:cc="http://creativecommons.org/ns#"
   xmlns:rdf="http://www.w3.org/1999/02/22-rdf-syntax-ns#"
   xmlns:svg="http://www.w3.org/2000/svg"
   xmlns="http://www.w3.org/2000/svg"
   id="svg8"
   version="1.1"
   viewBox="0 0 79.374998 79.375002"
   height="300"
   width="300">
  <defs
     id="defs2" />
  <metadata
     id="metadata5">
    <rdf:RDF>
      <cc:Work
         rdf:about="">
        <dc:format>image/svg+xml</dc:format>
        <dc:type
           rdf:resource="http://purl.org/dc/dcmitype/StillImage" />
        <dc:title></dc:title>
      </cc:Work>
    </rdf:RDF>
  </metadata>
  <g
     transform="translate(0,-217.62499)"
     id="layer1">
    <path
       id="rect825"
       transform="matrix(0.26458333,0,0,0.26458333,0,217.62499)"
       d="M 183.50781 76.552734 C 174.83175 76.438679 165.34556 78.040488 159.29492 80.880859 C 158.12805 81.428664 157.45416 82.054237 157.08594 82.935547 C 156.29103 84.83801 156.29683 192.70642 157.0918 194.60938 C 158.23853 197.35388 153.92126 197.14427 209.16211 197.13867 C 256.82213 197.13489 259.06177 197.10203 262.50781 196.39258 C 264.95616 195.88741 267.36666 195.03263 270.05664 193.71875 C 277.39722 190.13341 282.4847 185.04106 285.97656 177.78516 C 288.72909 172.06552 289.25045 169.65844 289.22266 162.76953 C 289.20187 157.64884 289.08433 156.63385 288.16602 153.63086 C 282.39084 134.74532 262.82233 124.4242 244.39453 130.54492 C 243.37294 130.88432 242.45871 131.08369 242.36133 130.98633 C 242.26393 130.88882 241.93192 129.27262 241.625 127.39453 C 237.40311 101.55987 217.62766 81.676735 191.75586 77.255859 C 189.20119 76.819324 186.39983 76.590753 183.50781 76.552734 z M 150.05664 84.525391 C 148.40526 84.428014 146.70288 85.370229 146.20312 87.248047 C 145.9985 88.016878 145.51334 105.92899 145.125 127.05273 C 144.41978 165.41316 144.42064 165.47583 145.20898 179.88086 C 145.88691 192.26841 146.09658 194.45352 146.69141 195.36133 C 148.03156 197.40666 150.65531 197.72749 152.33203 196.05078 C 152.93396 195.44885 153.52088 194.36869 153.63477 193.65039 C 153.74864 192.93209 154.19712 186.21547 154.63281 178.72656 L 155.42578 165.11133 L 154.59961 126.49414 C 153.93121 95.230645 153.66927 87.649112 153.22656 86.683594 C 152.5944 85.304869 151.34105 84.601128 150.05664 84.525391 z M 138.54102 91.160156 C 137.6179 91.11792 136.6272 91.458408 135.75 92.242188 L 134.51758 93.341797 L 133.83594 128.63281 C 133.22032 160.46464 133.20877 165.18368 133.7168 176.78906 C 134.50571 194.81151 134.52181 194.97693 135.70703 196.16211 C 137.03501 197.49012 139.31591 197.51995 140.60938 196.22656 C 141.11387 195.72207 141.62086 194.72967 141.73633 194.01953 C 141.85179 193.3094 142.25314 186.53298 142.62695 178.96289 C 143.27732 165.79245 143.2772 163.69865 142.625 130.37891 C 142.25015 111.22747 141.84879 94.977714 141.73438 94.267578 C 141.42744 92.362649 140.07955 91.230549 138.54102 91.160156 z M 103.05469 99.259766 C 102.39909 99.332872 101.75357 99.631705 101.24609 100.17188 L 100.3418 101.13672 L 99.457031 133.10547 L 98.572266 165.07617 L 99.501953 180.19531 C 100.39246 194.67661 100.46912 195.35155 101.29297 196.22852 C 102.42526 197.43377 104.07958 197.42365 105.30078 196.20312 C 105.81927 195.68461 106.24219 194.89709 106.24219 194.45508 C 106.24219 194.0131 106.68794 187.24647 107.23242 179.41797 L 108.22266 165.18555 L 107.22461 133.30664 C 106.64759 114.89955 106.06322 101.12273 105.8418 100.70898 C 105.27117 99.642756 104.14736 99.137921 103.05469 99.259766 z M 115.04492 100.74023 C 114.01768 100.68195 112.95156 101.05845 112.3418 101.89648 C 111.69704 102.78263 111.58011 105.25375 110.82812 133.96289 L 110.01367 165.07031 L 110.85742 179.85938 C 111.69799 194.59171 111.94635 196.36458 113.24414 196.88672 C 114.53685 197.40682 116.13204 197.10417 117.00781 196.17188 C 117.89644 195.22597 117.94842 194.81102 118.85547 180.90625 L 119.78711 166.61133 L 118.91992 134.92578 C 118.23652 109.96756 117.93847 103.01698 117.51758 102.18945 C 117.06057 101.29087 116.07216 100.79851 115.04492 100.74023 z M 91.921875 101.57617 C 90.751473 101.58434 89.561463 102.38345 89.255859 103.83008 C 89.101126 104.56251 88.582506 118.64068 88.103516 135.11719 L 87.232422 165.07617 L 88.210938 180.05469 C 88.798514 189.03847 89.372877 195.36506 89.646484 195.86328 C 90.441595 197.3111 92.369601 197.57568 93.546875 196.39844 C 94.522386 195.4229 94.525544 195.40163 95.689453 179.28516 L 96.6875 165.45898 L 95.654297 134.73438 C 94.991591 115.02924 94.465926 103.66669 94.189453 103.05664 C 93.729022 102.04065 92.832188 101.56982 91.921875 101.57617 z M 126.21875 102.64062 C 125.47405 102.66634 124.73215 102.95926 124.125 103.56641 C 122.96112 104.73027 122.93866 105.1547 122.16211 138.95898 C 121.60962 163.00971 121.60752 166.5427 122.15039 177.17383 C 123.0697 195.17273 123.07148 195.18866 124.12305 196.24023 C 125.09061 197.20779 126.87409 197.43499 128.15039 196.75195 L 128.15234 196.75195 C 128.55609 196.53576 129.09386 195.97434 129.34766 195.50391 C 129.63086 194.97893 130.13709 189.15952 130.66016 180.4375 L 131.51367 166.22656 L 130.76562 136.6543 C 130.35433 120.38902 129.9275 106.4992 129.81836 105.78906 C 129.51465 103.81293 127.85708 102.58405 126.21875 102.64062 z M 80.357422 106.50586 C 80.042738 106.50586 79.342787 106.89383 78.802734 107.36914 L 77.822266 108.23438 L 76.806641 136.6543 L 75.791016 165.07617 L 76.833984 180.22656 C 77.408 188.55997 78.039667 195.68166 78.238281 196.05273 C 78.642494 196.80804 79.677806 197.49989 80.431641 197.51758 C 80.705278 197.52514 81.354556 197.10445 81.873047 196.58594 C 82.391538 196.06746 82.815775 195.24659 82.816406 194.76172 C 82.817173 194.27684 83.327157 187.45049 83.951172 179.5918 L 85.085938 165.30273 L 83.955078 137.72852 C 83.332613 122.56233 82.820544 109.75636 82.818359 109.27148 C 82.813824 108.28151 81.233615 106.50586 80.357422 106.50586 z M 69.173828 117.32031 C 68.348546 117.32428 67.526728 117.6618 67.257812 118.33008 C 67.112187 118.69178 66.496291 129.35897 65.888672 142.0332 L 64.785156 165.07617 L 65.912109 180.39453 C 66.853272 193.16631 67.150397 195.83188 67.691406 196.42969 C 68.524936 197.35072 69.84064 197.34554 70.679688 196.41797 C 71.22657 195.81366 71.557375 193.09079 72.623047 180.38281 L 73.90625 165.07617 L 72.654297 142.03125 C 71.965179 129.35702 71.271776 118.68399 71.113281 118.3125 C 70.829456 117.64727 69.999111 117.31635 69.173828 117.32031 z M 47.027344 133.26953 C 46.657775 133.294 46.273547 133.44005 45.941406 133.71484 C 45.236785 134.29784 45.067884 135.63968 43.947266 149.68164 L 42.724609 165.01367 L 43.947266 179.94922 C 44.620498 188.16345 45.352448 195.2201 45.572266 195.63086 C 46.030526 196.48711 47.56556 196.62397 48.195312 195.86523 C 48.428925 195.58366 49.259602 188.54129 50.041016 180.21484 L 51.460938 165.07617 L 50.076172 149.90625 C 49.314151 141.56238 48.579483 134.44846 48.443359 134.09961 C 48.217722 133.52132 47.643292 133.22875 47.027344 133.26953 z M 35.751953 134.18164 C 35.424786 134.21565 35.103187 134.37726 34.855469 134.67578 C 34.612524 134.96832 33.855915 141.68249 33.113281 150.13477 L 31.800781 165.07617 L 33.132812 179.6582 C 33.866071 187.67821 34.650028 194.46135 34.875 194.73242 C 35.396257 195.3605 36.51867 195.36757 37.017578 194.74414 C 37.431672 194.2145 40.294842 167.76861 40.25 164.88477 C 40.200035 161.67039 37.497517 135.89424 37.119141 135.02344 C 36.85814 134.42278 36.297232 134.12496 35.751953 134.18164 z M 57.751953 135.22461 C 57.010421 135.25915 56.328041 135.70415 56.138672 136.54102 C 56.029066 137.02548 55.435366 143.64352 54.820312 151.24805 L 53.701172 165.07422 L 54.857422 180.05273 C 56.081463 195.93242 56.238842 196.75977 58.042969 196.75977 C 58.605627 196.75977 59.201785 196.41254 59.521484 195.89648 C 59.884773 195.31024 60.46915 190.23028 61.339844 180.10156 L 62.623047 165.17188 L 61.341797 151.10547 C 60.637626 143.36855 59.905438 136.73984 59.714844 136.375 C 59.29254 135.56665 58.493486 135.19007 57.751953 135.22461 z M 25.013672 139.15234 C 24.748546 139.15234 24.355066 139.36697 24.140625 139.63086 C 23.926186 139.89505 23.124845 145.72854 22.359375 152.59375 L 20.966797 165.07617 L 22.365234 177.55859 C 23.133977 184.42384 23.935316 190.25549 24.146484 190.51953 C 24.357654 190.78372 24.748546 191 25.013672 191 C 25.278798 191 25.664625 190.78342 25.873047 190.51953 C 26.081465 190.25534 26.964852 184.42384 27.835938 177.55859 L 29.419922 165.07617 L 27.851562 152.59375 C 26.988738 145.72854 26.105351 139.8949 25.888672 139.63086 C 25.671992 139.36667 25.278798 139.15234 25.013672 139.15234 z M 15.011719 148.73438 C 14.501208 148.76377 13.905411 149.10232 13.691406 149.61719 C 13.493884 150.09246 12.910046 153.79492 12.394531 157.8457 L 11.457031 165.21094 L 12.533203 173.16406 C 13.537311 180.58437 13.857168 181.75225 14.884766 181.77734 C 15.017325 181.78041 15.302786 181.56681 15.519531 181.30273 C 15.736276 181.03855 16.467792 177.30277 17.144531 173 L 18.373047 165.17578 L 17.144531 157.25586 C 16.468848 152.89931 15.837064 149.2028 15.738281 149.04297 C 15.594486 148.8103 15.318025 148.71674 15.011719 148.73438 z "
       style="opacity:1;fill:#ffffff;fill-opacity:1;fill-rule:evenodd;stroke:none;stroke-width:0;stroke-linecap:square;stroke-linejoin:miter;stroke-miterlimit:4;stroke-dasharray:none;stroke-opacity:1;paint-order:normal" />
  </g>
</svg>
